icon/pk/hand-up.svg

<svg viewBox="0 0 48 48" fill="none" xmlns="http://www.w3.org/2000/svg" height="1em" width="1em">
  <path d="M41 38H19V44H41V38Z" fill="#2F88FF" stroke="black" stroke-width="4" stroke-linejoin="round"/>
  <path fill-rule="evenodd" clip-rule="evenodd" d="M19.0001 38C12.4812 30.8771 8.74054 26.7492 7.77829 25.6162C6.33491 23.9168 6.941 21.996 10.5532 21.996C14.1653 21.996 16.2485 27.2814 19.0001 27.2814C19.0165 27.2848 19.0176 20.5257 19.0034 7.00404C19.0017 5.3467 20.3438 4.00174 22.0012 4L22.0043 4C23.6635 4 25.0085 5.34501 25.0085 7.00417V15.0136C32.9813 16.2224 37.3158 16.8893 38.0122 17.0144C39.0567 17.2019 41.0001 18.199 41.0001 21.068C41.0001 22.9807 41.0001 27.9581 41.0001 38H19.0001Z" stroke="black" stroke-width="4" stroke-linejoin="round"/>
</svg>

<svg width="48" height="48" fill="none" xmlns="http://www.w3.org/2000/svg"><path d="M41 38H19v6h22v-6Z" fill="#2F88FF" stroke="#000" stroke-width="4" stroke-linejoin="round"/><path clip-rule="evenodd" d="M19 38C12.481 30.877 8.74 26.75 7.778 25.616c-1.443-1.7-.837-3.62 2.775-3.62s5.695 5.285 8.447 5.285c.017.004.018-6.755.003-20.277A3 3 0 0 1 22.001 4h.003a3.004 3.004 0 0 1 3.005 3.004v8.01c7.972 1.208 12.307 1.875 13.003 2C39.057 17.202 41 18.2 41 21.068V38H19Z" stroke="#000" stroke-width="4" stroke-linejoin="round"/></svg>
